X:635
T:Reel 635
M:4/4
K:Dmaj
L:1/8
dB|:ADFD ADDF|ADFD EDB,D|ADFD ADFA||Bcec d2cB:||2Bdce d2dB|Addc d2ed|BdAd BdAB|Addc d2ed|BABc dcdB|Addc d2ed|BdAc BdAd|edef dcBA|Bdce dBAF|
